src/svg/repo-pull.svg

<svg height="16" width="16" xmlns="http://www.w3.org/2000/svg" viewBox="0 0 16 16">
  <path d="M13 8V6H7V4h6V2l3 3-3 3zM4 2h-1v1h1v-1z m7 5h1v6c0 0.55-0.45 1-1 1H6v2l-1.5-1.5-1.5 1.5V14H1c-0.55 0-1-0.45-1-1V1C0 0.45 0.45 0 1 0h10c0.55 0 1 0.45 1 1v2h-1V1H2v9h9V7z m0 4H1v2h2v-1h3v1h5V11zM4 6h-1v1h1v-1z m0-2h-1v1h1v-1z m-1 5h1v-1h-1v1z" />
</svg>

<?xml version="1.0" encoding="UTF-8" standalone="no"?>
<svg width="16px" height="16px" viewBox="0 0 16 16" version="1.1" xmlns="http://www.w3.org/2000/svg" xmlns:xlink="http://www.w3.org/1999/xlink">
    <!-- Generator: Sketch 3.7.1 (28215) - http://www.bohemiancoding.com/sketch -->
    <title>repo-pull</title>
    <desc>Created with Sketch.</desc>
    <defs></defs>
    <g id="Octicons" stroke="none" stroke-width="1" fill="none" fill-rule="evenodd">
        <g id="repo-pull" fill="#000000">
            <path d="M13,8 L13,6 L7,6 L7,4 L13,4 L13,2 L16,5 L13,8 L13,8 Z M4,2 L3,2 L3,3 L4,3 L4,2 L4,2 Z M11,7 L12,7 L12,13 C12,13.55 11.55,14 11,14 L6,14 L6,16 L4.5,14.5 L3,16 L3,14 L1,14 C0.45,14 0,13.55 0,13 L0,1 C0,0.45 0.45,0 1,0 L11,0 C11.55,0 12,0.45 12,1 L12,3 L11,3 L11,1 L2,1 L2,10 L11,10 L11,7 L11,7 Z M11,11 L1,11 L1,13 L3,13 L3,12 L6,12 L6,13 L11,13 L11,11 L11,11 Z M4,6 L3,6 L3,7 L4,7 L4,6 L4,6 Z M4,4 L3,4 L3,5 L4,5 L4,4 L4,4 Z M3,9 L4,9 L4,8 L3,8 L3,9 L3,9 Z" id="Shape"></path>
        </g>
    </g>
</svg>
